X:208
T:Bulgarian Red
M:4/4
L:1/8
F:http://blackrosetheband.googlepages.com/ABCTUNES.ABC May 2009
C:Charlie McKerron
R:reel
K:DDor
Addc d2dB|c2cA BGGB|Addc d2de|f2fa geef|
Addc d2dB|c2cA BGGB-|BBBG c2ce|f2fa geef:|
|:dA (3AAA fAeA|dAAA dece|dAAA fAeA|f2fa geef|
dA (3AAA fAeA|dAAA decA|B2BG c2ce|f2fa geef:|
